img/facebook.svg

<svg width="24" height="22" viewBox="0 0 24 22" fill="none" xmlns="http://www.w3.org/2000/svg">
<path d="M12.001 1.83521C6.47895 1.83521 2.00195 5.93912 2.00195 11.001C2.00195 15.5751 5.65795 19.3665 10.439 20.0567V13.651H7.89895V11.001H10.439V8.98154C10.439 6.68254 11.932 5.41479 14.215 5.41479C15.309 5.41479 16.455 5.59354 16.455 5.59354V7.84762H15.191C13.951 7.84762 13.563 8.55529 13.563 9.28037V10.9991H16.334L15.891 13.6492H13.563V20.0549C18.344 19.3683 22 15.576 22 11.001C22 5.93912 17.523 1.83521 12.001 1.83521Z" fill="#BDBDBD"/>
</svg>

<svg width="24" height="22" fill="none"
  xmlns="http://www.w3.org/2000/svg">
  <path d="M12.001 1.835c-5.522 0-10 4.104-10 9.166.001 4.574 3.657 8.365 8.438 9.056V13.65h-2.54v-2.65h2.54v-2.02c0-2.298 1.493-3.566 3.776-3.566a16.8 16.8 0 012.24.179v2.254h-1.264c-1.24 0-1.628.707-1.628 1.432V11h2.771l-.443 2.65h-2.328v6.405C18.344 19.368 22 15.576 22 11c0-5.062-4.477-9.166-9.999-9.166z" fill="#BDBDBD"/>
</svg>
